assets/sonr-icons/currency-crypto.svg

<svg xmlns="http://www.w3.org/2000/svg" width="24" height="24" fill="none" viewBox="0 0 24 24"><path fill="#000" d="M8.21297 4.23376C8.68947 4.00127 8.88727 3.42651 8.65478 2.95001 8.42228 2.47351 7.84753 2.27571 7.37103 2.50821 5.3671 3.48597 3.72253 5.07317 2.67622 7.04257 1.63025 9.01132 1.23313 11.2607 1.54333 13.4695 1.61706 13.9945 2.10247 14.3604 2.62751 14.2867 3.15255 14.2129 3.51841 13.7275 3.44467 13.2025 3.19087 11.3953 3.51575 9.55464 4.37178 7.9434 5.22746 6.3328 6.5729 5.03399 8.21297 4.23376ZM16.629 2.50921C16.1525 2.27671 15.5777 2.47451 15.3452 2.95101 15.1127 3.42751 15.3105 4.00226 15.787 4.23476 17.4271 5.03498 18.7717 6.33285 19.6284 7.94377 20.4851 9.55452 20.8092 11.395 20.5553 13.2025 20.4816 13.7275 20.8474 14.2129 21.3725 14.2867 21.8975 14.3604 22.3829 13.9945 22.4567 13.4695 22.7668 11.261 22.3709 9.01144 21.3236 7.0422 20.2763 5.07312 18.6329 3.48699 16.629 2.50921Z"/><path fill="#000" fill-rule="evenodd" d="M12.444 5.54843C12.1552 5.45518 11.8459 5.45611 11.5598 5.54755L11.5534 5.5496C11.3313 5.6223 11.1701 5.74218 11.0632 5.8329C10.9712 5.91103 10.8747 6.00758 10.7939 6.08845L6.08849 10.7938C6.00762 10.8746 5.91105 10.9711 5.83292 11.0632C5.74219 11.17 5.62231 11.3312 5.54961 11.5534L5.54845 11.557C5.4552 11.8458 5.45611 12.1551 5.54754 12.4412L5.54962 12.4476C5.62232 12.6697 5.74219 12.8309 5.83292 12.9378C5.91106 13.0298 6.00762 13.1263 6.08848 13.2071L10.7939 17.9125C10.8747 17.9934 10.9712 18.0899 11.0632 18.1681C11.1701 18.2588 11.3313 18.3787 11.5534 18.4514L11.557 18.4525C11.8458 18.5458 12.1552 18.5449 12.4412 18.4534L12.4476 18.4514C12.6697 18.3787 12.8309 18.2588 12.9378 18.1681C13.0298 18.0899 13.1263 17.9934 13.2071 17.9125L17.9125 13.2071C17.9934 13.1263 18.0899 13.0298 18.1681 12.9378C18.2588 12.8309 18.3787 12.6697 18.4514 12.4476L18.4525 12.444C18.5458 12.1552 18.5449 11.8458 18.4535 11.5597L18.4514 11.5534C18.3787 11.3312 18.2588 11.17 18.1681 11.0632C18.0899 10.9711 17.9934 10.8746 17.9125 10.7938L13.2071 6.08847C13.1263 6.0076 13.0298 5.91104 12.9378 5.8329C12.8309 5.74218 12.6697 5.6223 12.4476 5.5496L12.444 5.54843ZM7.59714 12.0005L12.0005 7.59713L16.4039 12.0005L12.0005 16.4038L7.59714 12.0005Z" clip-rule="evenodd"/><path fill="#000" d="M6.92111 18.9902C6.49211 18.6787 5.89177 18.7739 5.58022 19.2029C5.26867 19.6319 5.36389 20.2322 5.79289 20.5438C7.59679 21.8538 9.76923 22.56 12 22.56C14.2305 22.56 16.4031 21.855 18.2074 20.5435C18.6363 20.2318 18.7313 19.6314 18.4195 19.2026C18.1078 18.7737 17.5075 18.6787 17.0786 18.9904C15.6029 20.063 13.8255 20.64 12 20.64C10.1748 20.64 8.39721 20.0622 6.92111 18.9902Z"/></svg>

<svg xmlns="http://www.w3.org/2000/svg" width="24" height="24" fill="none"><path fill="currentColor" d="M8.213 4.234a.96.96 0 0 0-.842-1.726A10.56 10.56 0 0 0 1.543 13.47a.96.96 0 0 0 1.902-.268 8.65 8.65 0 0 1 4.768-8.968m8.416-1.725a.96.96 0 0 0-.842 1.726 8.64 8.64 0 0 1 4.768 8.968.96.96 0 0 0 1.902.267 10.56 10.56 0 0 0-5.828-10.96"/><path fill="currentColor" fill-rule="evenodd" d="M12.444 5.548a1.45 1.45 0 0 0-.884 0l-.007.002a1.5 1.5 0 0 0-.49.283 5 5 0 0 0-.27.255l-4.705 4.706c-.08.08-.177.177-.255.27a1.5 1.5 0 0 0-.283.49l-.002.003a1.45 1.45 0 0 0 0 .884l.002.007c.072.222.192.383.283.49.078.092.175.188.255.27l4.706 4.705c.08.08.177.177.27.255.106.09.267.21.49.283l.003.002c.289.093.598.092.884 0l.007-.002c.222-.072.383-.192.49-.283.092-.078.188-.175.27-.255l4.705-4.706c.08-.08.177-.177.255-.27.09-.106.21-.267.283-.49l.002-.003c.093-.289.092-.598 0-.884l-.002-.007a1.5 1.5 0 0 0-.283-.49 5 5 0 0 0-.255-.27l-4.706-4.705a5 5 0 0 0-.27-.255 1.5 1.5 0 0 0-.49-.283zm-4.847 6.453 4.404-4.404 4.403 4.404L12 16.404z" clip-rule="evenodd"/><path fill="currentColor" d="M6.921 18.99a.96.96 0 0 0-1.128 1.554 10.56 10.56 0 0 0 12.414 0 .96.96 0 1 0-1.128-1.554 8.64 8.64 0 0 1-10.158 0"/></svg>
